X:1
T:Title
%%score { ( 1 3 ) | ( 2 4 ) }
L:1/8
M:3/4
K:F
V:1 treble nm="Grand Piano"
V:3 treble 
V:2 bass 
V:4 bass 
V:1
 z2 z2[Q:1/4=112] c2 | c2 d2 c2 | F2 F2 G2 | A2 A2 B2 | c4 c2 | d2 d2 c2 | B2 A2 [EG]2 | [EG]6 | %8
 [GB]4 [Ac]2 | [Ac]2 [Bd]2 [Ac]2 | c2 B2 A2 | B2 B2 d2 | c4 c2 | =B2 A2 G2 | =B2 c2 d2 | %15
 c2- [Gc-]2 [Ac-]2 |[M:2/4] [Bc]4 |[M:1/4] cc |[M:3/4] c3 B A2 | A3 G F2 | F6 |[M:2/4] E4 | %22
[M:1/4] BB |[M:3/4] [EB]3 [EA] [EG]2 | D2 E3 D | [A,C]6- | [A,C]4 [A,C]2 | [A,C]2 [CF]2 G2 | %28
 A4 c2 | c2 A2 F2 |[M:4/4] d6 FG |[M:3/4] A2 c2 d2 | [FA]2 [EA]3 [B,CG] | %33
 [F,F]2- [F,-CF-]2 [F,-DF-]2 |[M:2/4] [F,CF]4 |] %35
V:2
 z2 z2 [F,A,F]2 | [F,A,F]2 [F,B,F]2 [F,A,F]2 | [F,A,C]2 [F,A,C]2 [C,C]2 | [F,CF]2 [F,CF]2 [B,DF]2 | %4
 [A,CFA]4 [A,CFA]2 | [B,DF]2 [B,DF]2 [A,CF]2 | [G,CE]2 [F,CF]2 [C,C]2 | [C,C]6- | %8
 [C,C]4[K:treble] [F,F]2 | [F,F]2 [F,F]2 [F,F]2 | [F,A,F]2 [G,B,E]2 [A,CF]2 | %11
 [B,D]2 [B,DF]2 [F,B,F]2 | [F,A,F]4 [F,A,F]2 | [G,DF]2 [G,CF]2 [G,=B,F]2 | %14
 [G,DF]2 [G,CE]2 [G,=B,F]2 | z6 |[M:2/4] [EG]4 |[M:1/4] [F,A,F][F,A,F] | %18
[M:3/4] [F,A,F]3 [F,DF] [F,CF]2 | [F,CF]3 [F,B,C] [F,A,C]2 | [F,A,C]6 |[M:2/4] [G,B,C]4 | %22
[M:1/4] [G,CE][G,CE] |[M:3/4] [C,C]3 [C,C] [C,C]2 | [C,G,B,]2 [C,G,B,]3 [C,G,B,] | [F,,F,]6- | %26
 [F,,F,]4 [F,,F,]2 | [F,,F,]2 [A,,F,]2 [C,E,C]2 | [F,A,CF]4 [F,A,F]2 | %29
 [F,A,_E]2 [F,A,E]2[K:treble] [A,CE]2 |[M:4/4] [B,DF_A]6 [B,D][B,^CF] | %31
[M:3/4] [F,CF]2[K:bass] [F,A,F]2 [F,B,F]2 | [C,C]2 [C,C]3 C, | z2 A,2 B,2 |[M:2/4] A,4 |] %35
V:3
 x6 | x6 | x6 | x6 | x6 | x6 | x6 | x6 | x6 | x6 | x6 | x6 | x6 | x6 | x6 | E2 z2 z2 |[M:2/4] x4 | %17
[M:1/4] x2 |[M:3/4] x6 | x6 | x6 |[M:2/4] x4 |[M:1/4] x2 |[M:3/4] x6 | x6 | x6 | x6 | x6 | x6 | %29
 x6 |[M:4/4] x8 |[M:3/4] x6 | x6 | [A,C]2 z2 z2 |[M:2/4] x4 |] %35
V:4
 x6 | x6 | x6 | x6 | x6 | x6 | x6 | x6 | x4[K:treble] x2 | x6 | x6 | x6 | x6 | x6 | x6 | [C,C]6- | %16
[M:2/4] [C,C]4 |[M:1/4] x2 |[M:3/4] x6 | x6 | x6 |[M:2/4] x4 |[M:1/4] x2 |[M:3/4] x6 | x6 | x6 | %26
 x6 | x6 | x6 | x4[K:treble] x2 |[M:4/4] x8 |[M:3/4] x2[K:bass] x4 | x6 | F,,6- |[M:2/4] F,,4 |] %35

